X:1
T:Secret Love
T:Secret Love
T:Sammy Fain
T:Paul Francis Webster
C:Sammy Fain
Z:All Rights Reserved
L:1/4
M:4/4
K:Eb
V:1 treble 
%%MIDI program 40
V:1
"Eb" B3"Fm7" A |"Eb" G E"Fm7" F"Bb7" G |"Eb" B,4- |"Fm7" B,2 z"Bb7" B, |"Eb" E3"^Bb-9" F | %5
w: Once I|had a sec- ret|love|* that|lived with-|
w: So I|told a friend- ly|star,|* the|way that|
"Eb6" G A"Bbdim" B c |"Fm7/Bb" F4- |"Bb7" F4 |"Fm7" A3 G |"Bb9" F D"Fm7" E F |"Bb7" B,4- | %11
w: in the heart of|me.||All too|soon my sec- ret|love|
w: dream- ers of- ten|do,||just how|won- der- ful you|are,|
 B,2 z B, | D3"Fm7" E | F"Bb6" G"Fm7" E"Bb7" F |"Eb" E4- |"Bb7" E2 z2 :|"Cm7" e3 d |"F7" c =A B c | %18
w: * be-|came im-|pat- ient to be|free.||Now I|shout it from the|
w: * and|why I'm|so in love with|you.||||
"Bb" d3 B |"Dm" F4 |"Eb11" _d3 c |"Eb7" B G A B |"^Abma7" c3 E |"Abm7" _c3 E |"Eb" B3 A | G E F G | %26
w: high- est|hills.|E- ven|told the gol- den|daf- fo-|dills. At|last my|heart's an o- pen|
w: ||||||||
"^Gm7-5" B,4- |"^C-9" B,3 B, |"Fm7" C F/G/ A c |"Bb7" B B, F G |"Eb" E4- | E3 z |] %32
w: door.|* And|my sec- ret love's no|sec- ret a- ny|more.||
w: ||||||

